src/assets/duotone/Velas.svg

<svg width="24" height="24" viewBox="0 0 24 24"  xmlns="http://www.w3.org/2000/svg">
<path d="M21 3.15039H3C2.59 3.15039 2.25 3.49039 2.25 3.90039C2.25 4.31039 2.59 4.65039 3 4.65039H21C21.41 4.65039 21.75 4.31039 21.75 3.90039C21.75 3.49039 21.41 3.15039 21 3.15039Z" />
<path d="M4.04006 6.24023H19.9701C20.8501 6.24023 21.38 7.21023 20.9 7.95023L12.9401 20.3402C12.5001 21.0202 11.5101 21.0202 11.0701 20.3402L3.10006 7.95023C2.63006 7.21023 3.16006 6.24023 4.04006 6.24023Z" />
</svg>

<?xml version="1.0" encoding="UTF-8"?>
<svg width="24" height="24" viewBox="0 0 24 24" xmlns="http://www.w3.org/2000/svg">
 <path d="m21 3.1504h-18c-0.41 0-0.75 0.34-0.75 0.75s0.34 0.75 0.75 0.75h18c0.41 0 0.75-0.34 0.75-0.75s-0.34-0.75-0.75-0.75z"/>
 <path d="m4.0401 6.2402h15.93c0.88 0 1.4099 0.97 0.9299 1.71l-7.9599 12.39c-0.44 0.68-1.43 0.68-1.87 0l-7.97-12.39c-0.47-0.74 0.06-1.71 0.94-1.71z"/>
</svg>
